X:17
%%topspace -50
T: Bonny Kate
M: 4/4
L: 1/4
K: G
def|: "G"g3/2f/g3/2f/|gddB| "C"c/d/ e"D"d3/2c/|"G"BGG3/2A/|
"Em"BGG A/B/ |"Am"cA"D7"A2| "G"B/c/ dcB|[1"D7"Adef:| [2"D"A2A2||
|: "G"BGG A/B/ |"Am"cA"Bm"dB|"C"ecc d/e/ |"D"f2d e/f/ |
"G"g3/2f/g f/e/ |"D"d e/f/ "G"gB| "C"c/d/ e"D"d3/2c/|[1"G"BGGA:| [2"G"Bd"D7"ef|] 

